!!!COM: Felix Mendelssohn
!!!CNT: Deutsch
!!!TXO: Deutsch
!!!OTL: Das Schifflein
!!!LYR: Uhland
!!!OPS: Op. 99
!!!ONM: No. 4
!!!ENC: Daniel Alt & Leigh VanHandel
!!!YOR: Sa2mmtliche Lieder fu2r eine Singstimme
!!!YOR: Neu revidirt von Dr. L. Benda, Ausgabe fu2r mittlere Stimme
!!!YOR: Braunschweig. Henry Litolff's Verlag. Boston and New York: Arthur P. Schmidt.
!!!ODT: 1841/
**kern	**silbe
*staff1	*
*clefG2	*
*k[]	*
*M6/8	*
=1	=1
4.r	.
4r	.
{8g	{Ein
=2	=2
4c	Schiff
8d	lein
4e	zie-
8g	-het
=3	=3
4.a	lei-
4g	-se
8cc	den
=4	=4
4g	Strom
8e	hin
4d	sei-
8c	-ne
=5	=5
4.e	Glei-
4d}	-se.}
{8g	{Es
=6	=6
4a	schwei-
8f	-gen,
4d	die
8f	d’rin
=7	=7
4a	wan-
8f	|
4d	-dern,
8d	denn
=8	=8
4e	Kei-
8f	-ner
4g	kennt
8f	den
=9	=9
4.e	An-
4d}	-dern,}
{8g	{es
=10	=10
4g	schwei-
8e	gen,
4d	die
8f	d’rin
=11	=11
4e	wan-
8d	|
4c}	-dern,}
{8cc	{denn
=12	=12
4cc	Kei-
8g	-ner
4f	kennt
8e	den
=13	=13
4.d	An-
4c}	-dern.}
8r	.
=14	=14
2.r	.
=15	=15
4r	.
8r	.
4r	.
{8g	{Was
=16	=16
4cc	zeiht
8cc	hier
4cc	aus
8cc	dem
=17	=17
4.cc	Fel-
4b	-le
8a	der
=18	=18
4g	brau-
8g	-ne
8g	Waid
8a	|
8b	ge-
=19	=19
4.b	-sel
4a}	-le?}
{8dd	{Ein
=20	=20
4a	Horn,
8b	das
8g	sanft
8a	|
8b	er-
=21	=21
4a	-shall-
8b	|
4a	-et:
8d	das
=22	=22
4a	U-
8b	-fer
8g	wi-
8a	|
8b	-der-
=23	=23
2.dd	-hal-
=24	=24
4.d}	-let.}
8r	.
8r	.
{8d	{Von
=25	=25
4cc	sei-
8a	-nem
4g-	Wan-
8a	-der-
=26	=26
4cc	-sta-
8a	|
4g-	-be
8g-	schraubt
=27	=27
4g	je-
8a	-ner
4b	Stift
8a	und
=28	=28
4.g	Ha-
4g-}	-be,}
{8d	{und
=29	=29
4g	mischt
8a	mit
4b	Flo2-
8dd	-ten
=30	=30
4.dd	to2-
4cc	nen
8b	sich
=31	=31
4a	in
8e	des
4g-	Hor-
8gn	nes
=32	=32
4.g	Dro2h-
4a}	-nen,}
{8d	{und
=33	=33
4g	mischt
8a	mit
4b	Flo2-
8b	-ten-
=34	=34
[2.ee	-to2-
=35	=35
4ee]	|
8cc	|
4a	-nen
8e	sich
=36	=36
4e	in
8g-	des
8gn	Hor-
8a	|
8b	-nes
=37	=37
4.a	Dro2h-
4g}	-nen.}
8r	.
=38	=38
2.r	.
=39	=39
4r	.
8r	.
4r	.
{8d	{Das
=40	=40
4g	Ma2d-
8g	-chen
8r	.
8g	sass
8g	so
=41	=41
4g	blo2-
8g	-de,
4r	.
8g	als
=42	=42
4a-	fehlt’
8a-	ihr
8r	.
8a-	gar
8a-	die
=43	=43
4a	Re-
8a}	-de,}
4r	.
8r	.
=44	=44
4r	.
8r	.
4r	.
{8c	{jetzt
=45	=45
4f	stimmt
8g	sie
4a	mit
8cc	Ge-
=46	=46
4.dd	-san-
4cc	-ge
8ff	zu
=47	=47
4cc	Horn-
8a	-und
8a	Flo2-
8g	|
8f	-ten-
=48	=48
4.a	-klan-
4g}	-ge.}
{8cc	{Die
=49	=49
4dd	Ru-
8b-	-der
4g	auch
8b-	sich
=50	=50
4dd	re-
8b-	|
4g	-gen
8g	mit
=51	=51
4a	takt-
8b-	-ge
4cc	-ma2s-
8b-	-sen
=52	=52
4.a	Schla2-
4g}	-gen.}
{8g	{Das
=53	=53
4cc	Schiff
8b-	hi-
4a	-nun-
8g	-ter
=54	=54
4g-	flie-
8e-	|
4d	-get,
8d	von
=55	=55
4dd	Me-
8b-	-lo-
8g	-die
8b-	|
8a	ge-
=56	=56
4.g	-wie-
4a}	-get;}
{8c	{das
=57	=57
4cc	Schiff
8b-	hi-
4a	-nun-
8g	-ter
=58	=58
4g-	flie-
8e-	|
4d	-get,
8d	von
=59	=59
4dd	Me-
8b-	-lo-
8g	-die
8a	|
8b-	ge-
=60	=60
[4.a	-wie-
4a]	|
8g	|
=61	=61
4f}	-get,}
8r	.
4r	.
{8cc	{von
=62	=62
[4.cc	Me-
4cc]	|
8b-	-lo-
=63	=63
4.a	-die
8r	.
8r	.
8cc	ge-
=64	=64
[4.a	wie-
4a]	|
8g	|
=65	=65
[2.f	-get.
=66	=66
4.f]}	|}
4r	.
8r	.
=67	=67
2.r	.
=68	=68
*M2/4	*
{8f	{Hart
16f	sto2sst
16f	es
8.f	auf
16f	am
=69	=69
8f	Stran-
8e	de,
8r	.
8B	man
=70	=70
8e	trennt
8e	sich
8r	.
16.e	in
32d	die
=71	=71
8c	Lan-
8B}	-de.}
8r	.
{8a	{Wann
=72	=72
*M6/8	*
4a	tref-
8f	-fen
4d	wir
8f	uns,
=73	=73
4a	Bru2-
8f	|
4d	-der!
8d	auf
=74	=74
4e	ei-
8f	-nem
4g	Schiff-
8f	-lein
=75	=75
4.e	wie-
4d}	-der?}
{8g	{Wann
=76	=76
4g	tref-
8e	-fen
4d	wir
8f	uns,
=77	=77
4e	Bru2-
8d	|
4c	-der!
8cc	auf
=78	=78
4cc	ei-
8g	-nem
4f	Schiff-
8e	-lein
=79	=79
4.d	wie-
4e}	-der?}
8r	.
=80	=80
4r	.
8r	.
4r	.
{8f	{auf
=81	=81
4e	ei-
8c	-nem
4e	Schiff-
8g	-lein
=82	=82
[4.g	wie-
4g]	|
8f	|
=83	=83
[4.e	-der?
4e]}	|}
8r	.
==	==
*-	*-
